co/file_new.svg

<svg viewBox="0 0 24 24" fill="none" xmlns="http://www.w3.org/2000/svg" height="1em" width="1em">
  <path d="M18 22H6C4.89543 22 4 21.1046 4 20V3.99999C4 2.89542 4.89543 1.99999 6 1.99999H13C13.009 1.99882 13.018 1.99882 13.027 1.99999H13.033C13.0424 2.00294 13.0522 2.00495 13.062 2.00599C13.1502 2.01164 13.2373 2.02878 13.321 2.05699H13.336H13.351H13.363C13.3815 2.06991 13.3988 2.08429 13.415 2.09999C13.5239 2.14841 13.6232 2.21617 13.708 2.29999L19.708 8.29999C19.7918 8.38477 19.8596 8.48404 19.908 8.59299C19.917 8.61499 19.924 8.63599 19.931 8.65899V8.67299V8.68699C19.9589 8.77038 19.9754 8.85717 19.98 8.94499C19.9809 8.95495 19.9832 8.96472 19.987 8.97399V8.97999C19.9921 8.98614 19.9964 8.99285 20 8.99999V20C20 21.1046 19.1046 22 18 22ZM6 3.99999V20H18V9.99999H13C12.4477 9.99999 12 9.55227 12 8.99999V3.99999H6ZM14 5.41399V7.99999H16.586L14 5.41399ZM13 18H11V16H9V14H11V12H13V14H15V16H13V18Z" fill="black"/>
</svg>

<svg viewBox="0 0 24 24" fill="none" xmlns="http://www.w3.org/2000/svg" height="1em" width="1em">
  <path d="M18 22H6a2 2 0 0 1-2-2V4a2 2 0 0 1 2-2h7a.104.104 0 0 1 .027 0h.006a.15.15 0 0 0 .029.006c.088.006.175.023.259.051h.042a.421.421 0 0 1 .052.043.988.988 0 0 1 .293.2l6 6a.987.987 0 0 1 .2.293.735.735 0 0 1 .023.066v.028c.028.083.044.17.049.258a.1.1 0 0 0 .007.029v.006c.005.006.01.013.013.02v11a2 2 0 0 1-2 2ZM6 4v16h12V10h-5a1 1 0 0 1-1-1V4H6Zm8 1.414V8h2.586L14 5.414ZM13 18h-2v-2H9v-2h2v-2h2v2h2v2h-2v2Z" fill="#000"/>
</svg>
